src/svg/flow-switch.svg

<svg version="1.2" baseProfile="tiny" xmlns="http://www.w3.org/2000/svg" width="24" height="24" viewBox="0 0 24 24"><g><path d="M8 16.184v-.684c0-.848.512-1.595 1.287-2.047-.667-.282-1.279-.667-1.822-1.131-.904.814-1.465 1.938-1.465 3.178v.684c-1.161.415-2 1.514-2 2.816 0 1.654 1.346 3 3 3s3-1.346 3-3c0-1.302-.839-2.401-2-2.816zm-1 3.816c-.552 0-1-.449-1-1s.448-1 1-1 1 .449 1 1-.448 1-1 1zM16 7.815v.351c0 .985-.535 1.852-1.345 2.36.665.274 1.279.646 1.823 1.1.936-.878 1.522-2.102 1.522-3.459v-.351c1.161-.415 2-1.514 2-2.816 0-1.654-1.346-3-3-3s-3 1.346-3 3c0 1.302.839 2.401 2 2.815zm1-3.815c.552 0 1 .449 1 1s-.448 1-1 1-1-.449-1-1 .448-1 1-1zM17.935 16.164c-.41-2.913-2.911-5.164-5.935-5.164-1.936 0-3.552-1.381-3.92-3.209 1.12-.436 1.92-1.519 1.92-2.791 0-1.654-1.346-3-3-3s-3 1.346-3 3c0 1.326.87 2.44 2.065 2.836.41 2.913 2.911 5.164 5.935 5.164 1.936 0 3.552 1.381 3.92 3.209-1.12.436-1.92 1.519-1.92 2.791 0 1.654 1.346 3 3 3s3-1.346 3-3c0-1.326-.87-2.44-2.065-2.836zm-10.935-12.164c.552 0 1 .449 1 1s-.448 1-1 1-1-.449-1-1 .448-1 1-1zm10 16c-.552 0-1-.449-1-1s.448-1 1-1 1 .449 1 1-.448 1-1 1z"/></g></svg>

<?xml version="1.0" encoding="iso-8859-1"?>
<!-- Generator: Adobe Illustrator 16.2.1, SVG Export Plug-In . SVG Version: 6.00 Build 0)  -->
<svg version="1.2" baseProfile="tiny" xmlns="http://www.w3.org/2000/svg" xmlns:xlink="http://www.w3.org/1999/xlink" x="0px"
	 y="0px" width="24px" height="24px" viewBox="0 0 24 24" xml:space="preserve">
<g id="Layer_1">
	<g>
		<path d="M8,16.184V15.5c0-0.848,0.512-1.595,1.287-2.047c-0.667-0.282-1.279-0.667-1.822-1.131C6.561,13.136,6,14.26,6,15.5v0.684
			C4.839,16.599,4,17.698,4,19c0,1.654,1.346,3,3,3s3-1.346,3-3C10,17.698,9.161,16.599,8,16.184z M7,20c-0.552,0-1-0.449-1-1
			s0.448-1,1-1s1,0.449,1,1S7.552,20,7,20z"/>
		<path d="M16,7.815v0.351c0,0.985-0.535,1.852-1.345,2.36c0.665,0.274,1.279,0.646,1.823,1.1C17.414,10.748,18,9.524,18,8.167
			V7.816C19.161,7.401,20,6.302,20,5c0-1.654-1.346-3-3-3s-3,1.346-3,3C14,6.302,14.839,7.401,16,7.815z M17,4c0.552,0,1,0.449,1,1
			s-0.448,1-1,1s-1-0.449-1-1S16.448,4,17,4z"/>
		<path d="M17.935,16.164C17.525,13.251,15.024,11,12,11c-1.936,0-3.552-1.381-3.92-3.209C9.2,7.355,10,6.272,10,5
			c0-1.654-1.346-3-3-3S4,3.346,4,5c0,1.326,0.87,2.44,2.065,2.836C6.475,10.749,8.976,13,12,13c1.936,0,3.552,1.381,3.92,3.209
			C14.8,16.645,14,17.728,14,19c0,1.654,1.346,3,3,3s3-1.346,3-3C20,17.674,19.13,16.56,17.935,16.164z M7,4c0.552,0,1,0.449,1,1
			S7.552,6,7,6S6,5.551,6,5S6.448,4,7,4z M17,20c-0.552,0-1-0.449-1-1s0.448-1,1-1s1,0.449,1,1S17.552,20,17,20z"/>
	</g>
</g>
<g id="nyt_x5F_exporter_x5F_info" display="none">
</g>
</svg>
